icons/text-dashed-underline-32.svg

<svg id="icons" xmlns="http://www.w3.org/2000/svg" viewBox="0 0 32 32"><defs><style>.cls-1{fill:none;}</style></defs><path d="M7,30H9v1H7Zm4,1h2V30H11Zm4,0h2V30H15Zm12-1v1h2V30Zm-8,1h2V30H19ZM3,31H5V30H3Zm20,0h2V30H23ZM15.61182,6l-8.286,20H8.432l2.46264-6H21.10541l2.46264,6h1.10614l-8.286-20ZM11.30505,19,16,7.56116,20.695,19Z"/><rect class="cls-1" width="32" height="32"/></svg>

<svg xmlns="http://www.w3.org/2000/svg" viewBox="0 0 32 32"><path d="M7 30h2v1H7zm4 1h2v-1h-2zm4 0h2v-1h-2zm12-1v1h2v-1zm-8 1h2v-1h-2zM3 31h2v-1H3zm20 0h2v-1h-2zM15.612 6L7.326 26h1.106l2.463-6h10.21l2.463 6h1.106L16.388 6zm-4.307 13L16 7.561 20.695 19z"/><path fill="none" d="M0 0h32v32H0z"/></svg>
